!!!OTL:Gluecklicher Wahn
!!!OTL-incipit:GRAD AUS DEM WIRTSHAUS NUN
!!!COM: Volksthuemlich
!!!ARE: Europa, Mitteleuropa, Deutschland
!!!SCT: F0214
!!!TXL: @@DE
!!!YEM: Copyright 1995, estate of Helmut Schaffrath.
**kern	**text
*ICvox	*
*M3/8	*
*k[]	*
*C:	*
=1	=1
!LO:TX:a:t=Munter.	!
{16gL	1._Grad'
16aJ	.
16bL	aus
16ccJ	.
16ddL	dem
16eeJ	.
=2	=2
8ff	Wirtshaus
8dd	.
8b}	nun
=3	=3
{8g	komm'
8a	ich
8g	her-
=4	=4
4.ee}	-aus;
=5	=5
{16aL	Straße,
16bJ	.
16cc#L	.
16ddJ	.
16eeL	wie
16ffJ	.
=6	=6
8gg	wun-
8ee	-der-
8cc#}	-lich
=7	=7
{8a	siehst
8b-/	du
8a	mir
=8	=8
4.ff}	aus!
=9	=9
{8.ee	Rech-
16ff	-ter
8ee	Hand,
=10	=10
8dd	lin-
8a	-ker
8a}	Hand,
=11	=11
{8.ee	bei-
16ff	-des
8ee	ver-
=12	=12
4.dd}	-tauscht;
=13	=13
{8cc	Stra-
8b/	-ße,
8a	ich
=14	=14
8g	merk'
8cc	es
8ee}	wohl,
=15	=15
{8ff	du
8a	bist
8b	be-
=16	=1-
4.cc}	-rauscht.
==	==
!!!AGN: Trink - Lied
!!!ONB: ESAC (Essen Associative Code) Database: FINK
!!!AMT: simple triple
!!!AIN: vox
!!!EED: Helmut Schaffrath
!!!EEV: 1.0
!!Text: v. Muehler
!!!source: Musikalischer Hausschatz der Deutschen. Eine Sammlung von über 1000 Liedern und Gesängen mit Singstimmen und Klavierbegleitung. Leipzig, Litterarisches Verlags-Haus.
!!!page: 123
!!!ENC: Anna Maria Matuszewska
!!!EEV: 2025/03/12
*-	*-
